X:1
T:Title
%%score 1 { ( 2 5 6 ) | ( 3 4 ) }
L:1/8
M:4/4
K:Eb
V:1 treble nm="Akkordion"
V:2 treble nm="Grand Piano"
V:5 treble 
V:6 treble 
V:3 bass 
V:4 bass 
V:1
 z4 z2[Q:1/4=94] G>A | B2 B>c G2 G>F | E2 E>F C2 E>C | B,2 EF GcBG |[M:3/4] F6 |[M:1/4] GA | %6
[M:4/4] B2 B>c G2 G>F | E2 E>F C2 E>C | B,3 B, CE F2 | E6 z2 | z8 | z8 | z8 | z8 | z8 |[M:9/8] z9 | %16
[M:4/4] z8 |[M:3/4] z6 |] %18
V:2
 z8 | G,B,EG BGEB, | G,CEG AECA, | G,B,E[DF] [EG]c[GB]G |[M:3/4] z2 z2 z/ F3/2 |[M:1/4] z2 | %6
[M:4/4] G,DEG BGEB, | G,CEG AECA, | E2 [B,E]2 [CE]2 [B,F]2 | [B,E]6 z2 | [GB]4 G2 B2 | %11
 [Ac]4 [GB]2 [EG]2 | [DF]2 [DF][DF] [B,EG][B,EG] [EF=A]2 | B2 B2 [CE=A]2 [B,F_A]2 | %14
 [EG]3 [FA] [GB]4 |[M:9/8] [Ac]3- [Ac] [Ae]2- [Ae] [Ec]2 | %16
[M:4/4] [EB]2 [B,EG][G,E] [B,DF][B,EG] [A,DF]2 |[M:3/4] [G,E]6 |] %18
V:3
 z8 | [E,,E,]2 G,,2 B,,2 B,,2 | C,2 G,,2 A,,2 A,,2 | E,2 E,B,, z A z E |[M:3/4] B,,6 |[M:1/4] z2 | %6
[M:4/4] [E,,E,]2 G,,2 B,,2 B,,2 | C,2 G,,2 A,,2 A,,2 | [E,G,B,]2 [G,,G,]2 [A,,A,]2 [B,,A,]2 | %9
 [E,G,]6 z2 | [E,E]4 [B,E]2 [EG]2 | [E,E]4 [E,E]2 [E,B,]2 | [B,,B,]2 [B,,B,][B,,B,] E,E, C,2 | %13
 B,,2 B,,2 C,2 D,2 | [E,B,]4 [E,E]4 |[M:9/8] [A,E]3- [A,E] [A,C]2- [A,C] [A,,A,]2 | %16
[M:4/4] [B,,G,]2 B,,B,, B,,B,, B,,2 |[M:3/4] E,6 |] %18
V:4
 x8 | x8 | x8 | z4 E,2 E,2 |[M:3/4] x6 |[M:1/4] x2 |[M:4/4] x8 | x8 | x8 | x8 | z4 E,4 | x8 | x8 | %13
 x8 | x8 |[M:9/8] x9 |[M:4/4] x8 |[M:3/4] x6 |] %18
V:5
 x8 | x8 | x8 | x8 |[M:3/4] [DF]B, DF (3z/ D/- [DA]2 |[M:1/4] x2 |[M:4/4] x8 | x8 | x8 | x8 | x8 | %11
 x8 | x8 | [DF]4 z4 | x8 |[M:9/8] x9 |[M:4/4] x8 |[M:3/4] x6 |] %18
V:6
 x8 | x8 | x8 | x8 |[M:3/4] z2 z2 B,2 |[M:1/4] x2 |[M:4/4] x8 | x8 | x8 | x8 | x8 | x8 | x8 | x8 | %14
 x8 |[M:9/8] x9 |[M:4/4] x8 |[M:3/4] x6 |] %18

